X:66
T:Donnybrook Fair
R:jig
M:6/8
L:1/8
K:Gmaj
|:GFG AGA|Bee dBA|BAB GAB|AGE DED|G2G A2A|
Bee dBA|B2B GAB|AGF G3:|gfe fed|efe dBA|
Bee dBA|Bee e2f|1gfe fed|efe dBA|BAB GAB|
AGF G2f:|2gfg aga|bge dBA|B2B GAB|AGF G3|

